assets/img/icons/duotone-icons/Food/Fish.svg

<?xml version="1.0" encoding="UTF-8"?>
<svg width="24px" height="24px" viewBox="0 0 24 24" version="1.1" xmlns="http://www.w3.org/2000/svg" xmlns:xlink="http://www.w3.org/1999/xlink">
    <!-- Generator: Sketch 52.2 (67145) - http://www.bohemiancoding.com/sketch -->
    <title>Stockholm-icons / Food / Fish</title>
    <desc>Created with Sketch.</desc>
    <g id="Stockholm-icons-/-Food-/-Fish" stroke="none" stroke-width="1" fill="none" fill-rule="evenodd">
        <rect id="bound" x="0" y="0" width="24" height="24"></rect>
        <path d="M7.22298453,10.4937704 C7.44647954,10.4924238 7.67003792,10.5039945 7.89244374,10.5284827 C7.95408341,11.0883044 7.93387977,11.6554286 7.83183285,12.2104632 C7.93387977,12.7654979 7.95408341,13.332622 7.89244374,13.8924437 C7.67003792,13.9169319 7.44647954,13.9285027 7.22298453,13.927156 C6.96554791,14.3979173 6.63753505,14.8403568 6.23894594,15.2389459 C4.95176756,16.5261243 3.20728966,17.0772903 1.52848271,16.8924437 C1.34499608,15.2259875 1.88673229,13.494823 3.15369135,12.2104632 C1.88673229,10.9261034 1.34499608,9.19493896 1.52848271,7.52848271 C3.20728966,7.3436362 4.95176756,7.89480213 6.23894594,9.18198052 C6.63753505,9.58056962 6.96554791,10.0230092 7.22298453,10.4937704 Z" id="Combined-Shape" fill="#335EEA" opacity="0.3"></path>
        <path d="M14,6 C17.8133397,6 21.2112391,9.14927651 23.4092875,12.5952475 C21.2112391,15.8507235 17.8133397,19 14,19 C10.1866603,19 6.7887609,15.8507235 4.59071251,12.5952475 C6.7887609,9.14927651 10.1866603,6 14,6 Z M20,13 C20.5522847,13 21,12.5522847 21,12 C21,11.4477153 20.5522847,11 20,11 C19.4477153,11 19,11.4477153 19,12 C19,12.5522847 19.4477153,13 20,13 Z" id="Combined-Shape" fill="#335EEA"></path>
    </g>
</svg>

<svg width="24" height="24" viewBox="0 0 24 24" xmlns="http://www.w3.org/2000/svg"><g fill="none" fill-rule="evenodd"><path d="M0 0h24v24H0z"/><path d="M7.223 10.494c.223-.002.447.01.67.034.061.56.04 1.127-.061 1.682.102.555.122 1.123.06 1.682a5.798 5.798 0 01-.669.035c-.257.47-.585.913-.984 1.312a5.754 5.754 0 01-4.71 1.653 5.753 5.753 0 011.625-4.682 5.753 5.753 0 01-1.626-4.682 5.754 5.754 0 014.71 1.654c.4.399.728.841.985 1.312z" fill="#335EEA" opacity=".3"/><path d="M14 6c3.813 0 7.211 3.15 9.41 6.595C21.21 15.851 17.812 19 14 19c-3.813 0-7.211-3.15-9.41-6.405C6.79 9.15 10.188 6 14 6zm6 7a1 1 0 100-2 1 1 0 000 2z" fill="#335EEA"/></g></svg>
